img/service/automation.svg

<svg height="60" viewBox="0 0 60 60" width="60" xmlns="http://www.w3.org/2000/svg"><g fill="none" fill-rule="evenodd"><path d="m55.1612903 13.5483871h-4.8387097v1.9354839h4.8387097c1.60046 0 2.9032258 1.3027658 2.9032258 2.9032258v26.1290322h-56.12903223v-26.1290322c0-1.60046 1.30276585-2.9032258 2.90322581-2.9032258h4.83870967v-1.9354839h-4.83870967c-2.66790581 0-4.83870968 2.1708039-4.83870968 4.8387097v30.9677419c0 2.6679058 2.17080387 4.8387097 4.83870968 4.8387097h12.58064512v3.8709677h-3.8709677v1.9354839h32.9032258v-1.9354839h-3.8709677v-3.8709677h12.5806451c2.6679058 0 4.8387097-2.1708039 4.8387097-4.8387097v-30.9677419c0-2.6679058-2.1708039-4.8387097-4.8387097-4.8387097zm-14.516129 44.516129h-21.2903226v-3.8709677h21.2903226zm14.516129-5.8064516h-50.32258062c-1.60045996 0-2.90322581-1.3027658-2.90322581-2.9032258v-2.9032258h56.12903223v2.9032258c0 1.60046-1.3027658 2.9032258-2.9032258 2.9032258z" fill="#9b9b9b" fill-rule="nonzero"/><path d="m46.4516129 48.3870968h1.9354839v1.9354838h-1.9354839z" fill="#5ab30e"/><path d="m50.3225806 48.3870968h1.9354839v1.9354838h-1.9354839z" fill="#5ab30e"/><path d="m54.1935484 48.3870968h1.9354839v1.9354838h-1.9354839z" fill="#5ab30e"/><path d="m42.5806452 40.6451613h13.5483871v1.9354839h-13.5483871z" fill="#9b9b9b"/><path d="m42.5806452 36.7741935h13.5483871v1.9354839h-13.5483871z" fill="#9b9b9b"/><path d="m44.516129 32.9032258h11.6129033v1.9354839h-11.6129033z" fill="#9b9b9b"/><path d="m48.3870968 29.0322581h7.7419355v1.9354838h-7.7419355z" fill="#9b9b9b"/><path d="m16.7856918 15.406376.1469568-.5457725c.3057271-1.1359627.7536858-2.219947 1.3315903-3.2236012l.282573-.4895413-1.7025263-2.8725114 3.0445122-3.04356726 2.8725114 1.70158137.4904864-.28257315c1.0017642-.57790439 2.0857485-1.02586306 3.2217112-1.33159016l.5457724-.14695693.8283455-3.2363596h4.3038055l.8283454 3.23730472.5457725.14695681c1.1359627.3057271 2.2199471.75368577 3.2217113 1.33159029l.4904863.28257302 2.8720389-1.70110887 3.0445123 3.04309476-1.702054 2.8725114.2825731.4895413c.5779045 1.0027092 1.0258632 2.0876387 1.3315903 3.2236014l.1469569.5457724 3.2382497.8274004v4.3038054l-3.2373047.8283455-.1469568.5457725c-.3057271 1.1359627-.7536858 2.2199471-1.3315903 3.2236014l-.282573.4895413 1.7025263 2.8725114-3.0445122 3.0430947-2.8725114-1.7011089-.4904864.2825731c-1.0017642.5779045-2.0857485 1.0258631-3.2217112 1.3315902l-.5457724.1469569-.8283455 3.2373047h-4.3038055l-.8283454-3.2373047-.5457725-.1469569c-1.1359627-.3057271-2.2199471-.7536857-3.2217113-1.3315902l-.4904863-.2825731-2.8720389 1.7011089-3.0445123-3.0430947 1.702054-2.8725114-.2825731-.4895413c-.5779045-1.0027093-1.0258632-2.0876387-1.3315902-3.2236014l-.146957-.5457725-3.2382497-.8274003v-4.3038055z" fill="#5ab30e"/><path d="m11.6129032 14.7330204v2.6863344h-7.74193546v25.1612904h19.35483876v-10.2978516c.7073777.3444745 1.4369644.6483115 2.195848.8826865l.9242692 3.6087134h7.3090978l.9242691-3.6087134c.9143459-.2825731 1.7979775-.6473665 2.6371913-1.0887097l3.2023374 1.8967364 5.1685358-5.1675908-1.8976814-3.2032824c.4422883-.8382687.8070816-1.7219003 1.0896546-2.6362462l3.6077685-.9252143v-7.3090978l-3.6087135-.9242691c-.2825731-.914346-.6473664-1.7979776-1.0896548-2.6362463l1.8976815-3.2032824-5.1685357-5.16759073-3.2023374 1.89673633c-.8382688-.4422883-1.7219004-.80613653-2.6371914-1.08870967l-.9242692-3.60871343h-7.3090978l-.9242691 3.60871343c-.9143459.28257314-1.7979775.64736649-2.6371913 1.08870967l-3.2023374-1.89673633-5.1685358 5.16759073 1.8976814 3.2032824c-.4422883.8382687-.8070816 1.7219003-1.0896546 2.6362463zm-5.80645159 25.9121409v-21.2903226h5.80645159v2.6863344l3.6087135.9242692c.2825731.914346.6473664 1.7979776 1.0896548 2.6362462l-1.8976815 3.2032825 5.1685357 5.1675908 1.7081969-1.0112147v7.6838142zm10.97924019-25.2387853.1469568-.5457725c.3057271-1.1359627.7536858-2.219947 1.3315903-3.2236012l.282573-.4895413-1.7025263-2.8725114 3.0445122-3.04356726 2.8725114 1.70158137.4904864-.28257315c1.0017642-.57790439 2.0857485-1.02586306 3.2217112-1.33159016l.5457724-.14695693.8283455-3.2363596h4.3038055l.8283454 3.23730472.5457725.14695681c1.1359627.3057271 2.2199471.75368577 3.2217113 1.33159029l.4904863.28257302 2.8720389-1.70110887 3.0445123 3.04309476-1.702054 2.8725114.2825731.4895413c.5779045 1.0027092 1.0258632 2.0876387 1.3315903 3.2236014l.1469569.5457724 3.2382497.8274004v4.3038054l-3.2373047.8283455-.1469568.5457725c-.3057271 1.1359627-.7536858 2.2199471-1.3315903 3.2236013l-.282573.4895414 1.7025263 2.8725114-3.0445122 3.0430947-2.8725114-1.7011089-.4904864.2825731c-1.0017642.5779045-2.0857485 1.0258631-3.2217112 1.3315902l-.5457724.1469569-.8283455 3.2373047h-4.3038055l-.8283454-3.2373047-.5457725-.1469569c-1.1359627-.3057271-2.2199471-.7536857-3.2217113-1.3315902l-.4904863-.2825731-2.8720389 1.7011089-3.0445123-3.0430947 1.702054-2.8725114-.2825731-.4895413c-.5779045-1.0027093-1.0258632-2.0876387-1.3315902-3.2236014l-.146957-.5457725-3.2382497-.8274003v-4.3038055z" fill="#5ab30e" fill-rule="nonzero"/><path d="m30 30c6.4037298 0 11.6129032-5.2091734 11.6129032-11.6129032 0-6.4037299-5.2091734-11.61290325-11.6129032-11.61290325s-11.6129032 5.20917335-11.6129032 11.61290325c0 6.4037298 5.2091734 11.6129032 11.6129032 11.6129032zm0-21.29032258c5.336284 0 9.6774194 4.34113538 9.6774194 9.67741938s-4.3411354 9.6774193-9.6774194 9.6774193-9.6774194-4.3411353-9.6774194-9.6774193 4.3411354-9.67741938 9.6774194-9.67741938z" fill="#fff" fill-rule="nonzero"/><path d="m30 26.1290323c4.2688381 0 7.7419355-3.4730974 7.7419355-7.7419355 0-4.2688382-3.4730974-7.7419355-7.7419355-7.7419355s-7.7419355 3.4730973-7.7419355 7.7419355c0 4.2688381 3.4730974 7.7419355 7.7419355 7.7419355zm0-13.5483871c3.2023374 0 5.8064516 2.6041142 5.8064516 5.8064516s-2.6041142 5.8064516-5.8064516 5.8064516-5.8064516-2.6041142-5.8064516-5.8064516 2.6041142-5.8064516 5.8064516-5.8064516z" fill="#fff" fill-rule="nonzero"/><path d="m27.0967742 17.4193548h1.9354839v1.9354839h-1.9354839z" fill="#fff"/><path d="m30.9677419 17.4193548h1.9354839v1.9354839h-1.9354839z" fill="#fff"/><g fill="#9b9b9b"><path d="m7.74193548 21.2903226h1.93548387v1.9354839h-1.93548387z"/><path d="m7.74193548 25.1612903h3.87096772v1.9354839h-3.87096772z"/><path d="m7.74193548 29.0322581h3.87096772v1.9354838h-3.87096772z"/><path d="m7.74193548 32.9032258h7.74193552v1.9354839h-7.74193552z"/><path d="m7.74193548 36.7741935h11.61290322v1.9354839h-11.61290322z"/></g></g></svg>

<?xml version="1.0" encoding="UTF-8"?>
<svg width="60px" height="60px" viewBox="0 0 60 60" version="1.1" xmlns="http://www.w3.org/2000/svg" xmlns:xlink="http://www.w3.org/1999/xlink">
    <!-- Generator: Sketch 52.1 (67048) - http://www.bohemiancoding.com/sketch -->
    <title>Group 9</title>
    <desc>Created with Sketch.</desc>
    <g id="Page-1" stroke="none" stroke-width="1" fill="none" fill-rule="evenodd">
        <g id="Hamon_Home" transform="translate(-240.000000, -1204.000000)">
            <g id="Group-9" transform="translate(240.000000, 1204.000000)">
                <path d="M55.1612903,13.5483871 L50.3225806,13.5483871 L50.3225806,15.483871 L55.1612903,15.483871 C56.7617503,15.483871 58.0645161,16.7866368 58.0645161,18.3870968 L58.0645161,44.516129 L1.93548387,44.516129 L1.93548387,18.3870968 C1.93548387,16.7866368 3.23824972,15.483871 4.83870968,15.483871 L9.67741935,15.483871 L9.67741935,13.5483871 L4.83870968,13.5483871 C2.17080387,13.5483871 0,15.719191 0,18.3870968 L0,49.3548387 C0,52.0227445 2.17080387,54.1935484 4.83870968,54.1935484 L17.4193548,54.1935484 L17.4193548,58.0645161 L13.5483871,58.0645161 L13.5483871,60 L46.4516129,60 L46.4516129,58.0645161 L42.5806452,58.0645161 L42.5806452,54.1935484 L55.1612903,54.1935484 C57.8291961,54.1935484 60,52.0227445 60,49.3548387 L60,18.3870968 C60,15.719191 57.8291961,13.5483871 55.1612903,13.5483871 Z M40.6451613,58.0645161 L19.3548387,58.0645161 L19.3548387,54.1935484 L40.6451613,54.1935484 L40.6451613,58.0645161 Z M55.1612903,52.2580645 L4.83870968,52.2580645 C3.23824972,52.2580645 1.93548387,50.9552987 1.93548387,49.3548387 L1.93548387,46.4516129 L58.0645161,46.4516129 L58.0645161,49.3548387 C58.0645161,50.9552987 56.7617503,52.2580645 55.1612903,52.2580645 Z" id="Shape" fill="#9B9B9B" fill-rule="nonzero"></path>
                <polygon id="Path" fill="#5AB30E" points="46.4516129 48.3870968 48.3870968 48.3870968 48.3870968 50.3225806 46.4516129 50.3225806"></polygon>
                <polygon id="Path" fill="#5AB30E" points="50.3225806 48.3870968 52.2580645 48.3870968 52.2580645 50.3225806 50.3225806 50.3225806"></polygon>
                <polygon id="Path" fill="#5AB30E" points="54.1935484 48.3870968 56.1290323 48.3870968 56.1290323 50.3225806 54.1935484 50.3225806"></polygon>
                <polygon id="Path" fill="#9B9B9B" points="42.5806452 40.6451613 56.1290323 40.6451613 56.1290323 42.5806452 42.5806452 42.5806452"></polygon>
                <polygon id="Path" fill="#9B9B9B" points="42.5806452 36.7741935 56.1290323 36.7741935 56.1290323 38.7096774 42.5806452 38.7096774"></polygon>
                <polygon id="Path" fill="#9B9B9B" points="44.516129 32.9032258 56.1290323 32.9032258 56.1290323 34.8387097 44.516129 34.8387097"></polygon>
                <polygon id="Path" fill="#9B9B9B" points="48.3870968 29.0322581 56.1290323 29.0322581 56.1290323 30.9677419 48.3870968 30.9677419"></polygon>
                <path d="M16.7856918,15.406376 L16.9326486,14.8606035 C17.2383757,13.7246408 17.6863344,12.6406565 18.2642389,11.6370023 L18.5468119,11.147461 L16.8442856,8.2749496 L19.8887978,5.23138234 L22.7613092,6.93296371 L23.2517956,6.65039056 C24.2535598,6.07248617 25.3375441,5.6245275 26.4735068,5.3188004 L27.0192792,5.17184347 L27.8476247,1.93548387 L32.1514302,1.93548387 L32.9797756,5.17278859 L33.5255481,5.3197454 C34.6615108,5.6254725 35.7454952,6.07343117 36.7472594,6.65133569 L37.2377457,6.93390871 L40.1097846,5.23279984 L43.1542969,8.2758946 L41.4522429,11.148406 L41.734816,11.6379473 C42.3127205,12.6406565 42.7606792,13.725586 43.0664063,14.8615487 L43.2133632,15.4073211 L46.4516129,16.2347215 L46.4516129,20.5385269 L43.2143082,21.3668724 L43.0673514,21.9126449 C42.7616243,23.0486076 42.3136656,24.132592 41.7357611,25.1362463 L41.4531881,25.6257876 L43.1557144,28.498299 L40.1112022,31.5413937 L37.2386908,29.8402848 L36.7482044,30.1228579 C35.7464402,30.7007624 34.6624559,31.148721 33.5264932,31.4544481 L32.9807208,31.601405 L32.1523753,34.8387097 L27.8485698,34.8387097 L27.0202244,31.601405 L26.4744519,31.4544481 C25.3384892,31.148721 24.2545048,30.7007624 23.2527406,30.1228579 L22.7622543,29.8402848 L19.8902154,31.5413937 L16.8457031,28.498299 L18.5477571,25.6257876 L18.265184,25.1362463 C17.6872795,24.133537 17.2393208,23.0486076 16.9335938,21.9126449 L16.7866368,21.3668724 L13.5483871,20.5394721 L13.5483871,16.2356666 L16.7856918,15.406376 Z" id="Path" fill="#5AB30E"></path>
                <path d="M11.6129032,14.7330204 L11.6129032,17.4193548 L3.87096774,17.4193548 L3.87096774,42.5806452 L23.2258065,42.5806452 L23.2258065,32.2827936 C23.9331842,32.6272681 24.6627709,32.9311051 25.4216545,33.1654801 L26.3459237,36.7741935 L33.6550215,36.7741935 L34.5792906,33.1654801 C35.4936365,32.882907 36.3772681,32.5181136 37.2164819,32.0767704 L40.4188193,33.9735068 L45.5873551,28.805916 L43.6896737,25.6026336 C44.131962,24.7643649 44.4967553,23.8807333 44.7793283,22.9663874 L48.3870968,22.0411731 L48.3870968,14.7320753 L44.7783833,13.8078062 C44.4958102,12.8934602 44.1310169,12.0098286 43.6887285,11.1715599 L45.58641,7.9682775 L40.4178743,2.80068677 L37.2155369,4.6974231 C36.3772681,4.2551348 35.4936365,3.89128657 34.5783455,3.60871343 L33.6540763,0 L26.3449785,0 L25.4207094,3.60871343 C24.5063635,3.89128657 23.6227319,4.25607992 22.7835181,4.6974231 L19.5811807,2.80068677 L14.4126449,7.9682775 L16.3103263,11.1715599 C15.868038,12.0098286 15.5032447,12.8934602 15.2206717,13.8078062 L11.6129032,14.7330204 Z M5.80645161,40.6451613 L5.80645161,19.3548387 L11.6129032,19.3548387 L11.6129032,22.0411731 L15.2216167,22.9654423 C15.5041898,23.8797883 15.8689831,24.7634199 16.3112715,25.6016885 L14.41359,28.804971 L19.5821257,33.9725618 L21.2903226,32.9613471 L21.2903226,40.6451613 L5.80645161,40.6451613 Z M16.7856918,15.406376 L16.9326486,14.8606035 C17.2383757,13.7246408 17.6863344,12.6406565 18.2642389,11.6370023 L18.5468119,11.147461 L16.8442856,8.2749496 L19.8887978,5.23138234 L22.7613092,6.93296371 L23.2517956,6.65039056 C24.2535598,6.07248617 25.3375441,5.6245275 26.4735068,5.3188004 L27.0192792,5.17184347 L27.8476247,1.93548387 L32.1514302,1.93548387 L32.9797756,5.17278859 L33.5255481,5.3197454 C34.6615108,5.6254725 35.7454952,6.07343117 36.7472594,6.65133569 L37.2377457,6.93390871 L40.1097846,5.23279984 L43.1542969,8.2758946 L41.4522429,11.148406 L41.734816,11.6379473 C42.3127205,12.6406565 42.7606792,13.725586 43.0664063,14.8615487 L43.2133632,15.4073211 L46.4516129,16.2347215 L46.4516129,20.5385269 L43.2143082,21.3668724 L43.0673514,21.9126449 C42.7616243,23.0486076 42.3136656,24.132592 41.7357611,25.1362462 L41.4531881,25.6257876 L43.1557144,28.498299 L40.1112022,31.5413937 L37.2386908,29.8402848 L36.7482044,30.1228579 C35.7464402,30.7007624 34.6624559,31.148721 33.5264932,31.4544481 L32.9807208,31.601405 L32.1523753,34.8387097 L27.8485698,34.8387097 L27.0202244,31.601405 L26.4744519,31.4544481 C25.3384892,31.148721 24.2545048,30.7007624 23.2527406,30.1228579 L22.7622543,29.8402848 L19.8902154,31.5413937 L16.8457031,28.498299 L18.5477571,25.6257876 L18.265184,25.1362463 C17.6872795,24.133537 17.2393208,23.0486076 16.9335938,21.9126449 L16.7866368,21.3668724 L13.5483871,20.5394721 L13.5483871,16.2356666 L16.7856918,15.406376 Z" id="Shape" fill="#5AB30E" fill-rule="nonzero"></path>
                <path d="M30,30 C36.4037298,30 41.6129032,24.7908266 41.6129032,18.3870968 C41.6129032,11.9833669 36.4037298,6.77419355 30,6.77419355 C23.5962702,6.77419355 18.3870968,11.9833669 18.3870968,18.3870968 C18.3870968,24.7908266 23.5962702,30 30,30 Z M30,8.70967742 C35.336284,8.70967742 39.6774194,13.0508128 39.6774194,18.3870968 C39.6774194,23.7233808 35.336284,28.0645161 30,28.0645161 C24.663716,28.0645161 20.3225806,23.7233808 20.3225806,18.3870968 C20.3225806,13.0508128 24.663716,8.70967742 30,8.70967742 Z" id="Shape" fill="#FFFFFF" fill-rule="nonzero"></path>
                <path d="M30,26.1290323 C34.2688381,26.1290323 37.7419355,22.6559349 37.7419355,18.3870968 C37.7419355,14.1182586 34.2688381,10.6451613 30,10.6451613 C25.7311619,10.6451613 22.2580645,14.1182586 22.2580645,18.3870968 C22.2580645,22.6559349 25.7311619,26.1290323 30,26.1290323 Z M30,12.5806452 C33.2023374,12.5806452 35.8064516,15.1847594 35.8064516,18.3870968 C35.8064516,21.5894342 33.2023374,24.1935484 30,24.1935484 C26.7976626,24.1935484 24.1935484,21.5894342 24.1935484,18.3870968 C24.1935484,15.1847594 26.7976626,12.5806452 30,12.5806452 Z" id="Shape" fill="#FFFFFF" fill-rule="nonzero"></path>
                <polygon id="Path" fill="#FFFFFF" points="27.0967742 17.4193548 29.0322581 17.4193548 29.0322581 19.3548387 27.0967742 19.3548387"></polygon>
                <polygon id="Path" fill="#FFFFFF" points="30.9677419 17.4193548 32.9032258 17.4193548 32.9032258 19.3548387 30.9677419 19.3548387"></polygon>
                <polygon id="Path" fill="#9B9B9B" points="7.74193548 21.2903226 9.67741935 21.2903226 9.67741935 23.2258065 7.74193548 23.2258065"></polygon>
                <polygon id="Path" fill="#9B9B9B" points="7.74193548 25.1612903 11.6129032 25.1612903 11.6129032 27.0967742 7.74193548 27.0967742"></polygon>
                <polygon id="Path" fill="#9B9B9B" points="7.74193548 29.0322581 11.6129032 29.0322581 11.6129032 30.9677419 7.74193548 30.9677419"></polygon>
                <polygon id="Path" fill="#9B9B9B" points="7.74193548 32.9032258 15.483871 32.9032258 15.483871 34.8387097 7.74193548 34.8387097"></polygon>
                <polygon id="Path" fill="#9B9B9B" points="7.74193548 36.7741935 19.3548387 36.7741935 19.3548387 38.7096774 7.74193548 38.7096774"></polygon>
            </g>
        </g>
    </g>
</svg>
